; G-Code generated by Simplify3D(R) Version 4.0.0
; Nov 12, 2018 at 11:15:46 AM
; Settings Summary
;   processName,grid
;   applyToModels,disk
;   profileName,MakerBot Replicator 2X (modified)
;   profileVersion,2018-06-21 14:52:29
;   baseProfile,
;   printMaterial,PLA
;   printQuality,Medium
;   printExtruders,Right Extruder Only
;   extruderName,Right Extruder,Left Extruder
;   extruderToolheadNumber,0,1
;   extruderDiameter,0.4,0.4
;   extruderAutoWidth,0,0
;   extruderWidth,0.4,0.4
;   extrusionMultiplier,1.1,1
;   extruderUseRetract,1,1
;   extruderRetractionDistance,1,1
;   extruderExtraRestartDistance,0,0
;   extruderRetractionZLift,0,0
;   extruderRetractionSpeed,1200,1200
;   extruderUseCoasting,0,0
;   extruderCoastingDistance,0.2,0.2
;   extruderUseWipe,0,0
;   extruderWipeDistance,5,5
;   primaryExtruder,0
;   layerHeight,0.59
;   topSolidLayers,0
;   bottomSolidLayers,0
;   perimeterOutlines,0
;   printPerimetersInsideOut,1
;   startPointOption,2
;   startPointOriginX,0
;   startPointOriginY,0
;   sequentialIslands,1
;   spiralVaseMode,0
;   firstLayerHeightPercentage,100
;   firstLayerWidthPercentage,100
;   firstLayerUnderspeed,1
;   useRaft,0
;   raftExtruder,0
;   raftTopLayers,3
;   raftBaseLayers,2
;   raftOffset,3
;   raftSeparationDistance,0.14
;   raftTopInfill,100
;   aboveRaftSpeedMultiplier,0.3
;   useSkirt,0
;   skirtExtruder,0
;   skirtLayers,1
;   skirtOutlines,2
;   skirtOffset,4
;   usePrimePillar,0
;   primePillarExtruder,999
;   primePillarWidth,12
;   primePillarLocation,7
;   primePillarSpeedMultiplier,1
;   useOozeShield,0
;   oozeShieldExtruder,999
;   oozeShieldOffset,2
;   oozeShieldOutlines,1
;   oozeShieldSidewallShape,1
;   oozeShieldSidewallAngle,30
;   oozeShieldSpeedMultiplier,1
;   infillExtruder,0
;   internalInfillPattern,Grid
;   externalInfillPattern,Rectilinear
;   infillPercentage,100
;   outlineOverlapPercentage,20
;   infillExtrusionWidthPercentage,100
;   minInfillLength,5
;   infillLayerInterval,1
;   internalInfillAngles,0,90
;   overlapInternalInfillAngles,1
;   externalInfillAngles,45,-45
;   generateSupport,0
;   supportExtruder,0
;   supportInfillPercentage,30
;   supportExtraInflation,0
;   supportBaseLayers,0
;   denseSupportExtruder,0
;   denseSupportLayers,0
;   denseSupportInfillPercentage,70
;   supportLayerInterval,1
;   supportHorizontalPartOffset,0.3
;   supportUpperSeparationLayers,1
;   supportLowerSeparationLayers,1
;   supportType,0
;   supportGridSpacing,4
;   maxOverhangAngle,45
;   supportAngles,0
;   temperatureName,Right Extruder,Left Extruder,Heated Build Platform
;   temperatureNumber,0,1,0
;   temperatureSetpointCount,1,1,1
;   temperatureSetpointLayers,1,1,1
;   temperatureSetpointTemperatures,200,0,0
;   temperatureStabilizeAtStartup,0,0,0
;   temperatureHeatedBed,0,0,1
;   temperatureRelayBetweenLayers,0,0,0
;   temperatureRelayBetweenLoops,0,0,0
;   fanLayers,1,2
;   fanSpeeds,0,100
;   blipFanToFullPower,0
;   adjustSpeedForCooling,0
;   minSpeedLayerTime,15
;   minCoolingSpeedSlowdown,20
;   increaseFanForCooling,0
;   minFanLayerTime,45
;   maxCoolingFanSpeed,100
;   increaseFanForBridging,0
;   bridgingFanSpeed,100
;   use5D,1
;   relativeEdistances,1
;   allowEaxisZeroing,0
;   independentExtruderAxes,1
;   includeM10123,0
;   stickySupport,1
;   applyToolheadOffsets,0
;   gcodeXoffset,0
;   gcodeYoffset,0
;   gcodeZoffset,-0.02
;   overrideMachineDefinition,1
;   machineTypeOverride,0
;   strokeXoverride,250
;   strokeYoverride,150
;   strokeZoverride,150
;   originOffsetXoverride,125
;   originOffsetYoverride,75
;   originOffsetZoverride,0
;   homeXdirOverride,1
;   homeYdirOverride,1
;   homeZdirOverride,-1
;   flipXoverride,1
;   flipYoverride,-1
;   flipZoverride,1
;   toolheadOffsets,0,0|33,0|0,0|0,0|0,0|0,0
;   overrideFirmwareConfiguration,1
;   firmwareTypeOverride,MakerBot/Sailfish Firmware
;   GPXconfigOverride,r2x
;   baudRateOverride,115200
;   overridePrinterModels,1
;   printerModelsOverride,MakerBot_Replicator2X.stl
;   startingGcode,; **** Replicator 2X start.gcode ****,M73 P0 ; Enable build progress,G162 X Y F3000 ; Home XY maximum,G161 Z F1200 ; Home Z minimum,G92 Z-5 ; Set Z to -5,G1 Z0 ; Move Z to 0,G161 Z F100 ; Home Z slowly,M132 X Y Z A B ; Recall home offsets,M135 T0 ; Load right extruder offsets,G1 X-130 Y-75 Z30 F9000 ; Move to wait position off table,G130 X20 Y20 Z20 A20 B20 ; Lower stepper Vrefs while heating,M126 S[fan_speed_pwm] ; Set fan speed,M140 S[bed0_temperature] T0 ; Heat buildplate,M134 T0 ; Stabilize bed temperature,M104 S[extruder0_temperature] T0 ; Heat right extruder,M133 T0 ; Stabilize extruder temperature,G130 X127 Y127 Z40 A127 B127 ; Default stepper Vref,G92 A0 B0 ; Zero extruders,G1 X100 Y-70 F9000 ; Move to front right corner of bed,G1 Z0.3 F6000 ; Move down to purge,G1 X-90 Y-70 E24 F2000 ; Extrude a line of filament across the front edge of the bed,G1 X-100 Y-70 F180 ; Wait for ooze,G1 X-110 Y-70 F5000 ; Fast wipe,G1 Z0.5 F100 ; Lift,G92 A0 B0 ; Zero extruders,M73 P1 ;@body (notify GPX body has started),; **** end of start.gcode ****
;   layerChangeGcode,
;   retractionGcode,
;   toolChangeGcode,
;   endingGcode,; **** Replicator 2X end.gcode ****,M73 P100 ; end build progress,G1 Z155 F1000 ; send Z axis to bottom of machine,M140 S0 T0 ; cool down HBP,M104 S0 T0 ; cool down right extruder,M104 S0 T1 ; cool down left extruder,M127 ; stop blower fan,G162 X Y F3000 ; home XY maximum,M18 ; disable stepper,M72 P1 ; play Ta-Da song,; **** end of end.gcode ****
;   exportFileFormat,gcode
;   celebration,0
;   celebrationSong,Random Song
;   postProcessing,
;   defaultSpeed,3500
;   outlineUnderspeed,1
;   solidInfillUnderspeed,1
;   supportUnderspeed,1
;   rapidXYspeed,9000
;   rapidZspeed,1200
;   minBridgingArea,50
;   bridgingExtraInflation,0
;   bridgingExtrusionMultiplier,1
;   bridgingSpeedMultiplier,0.8
;   useFixedBridgingAngle,0
;   fixedBridgingAngle,0
;   applyBridgingToPerimeters,0
;   filamentDiameters,1.75|1.75|1.75|1.75|1.75|1.75
;   filamentPricesPerKg,46|46|46|46|46|46
;   filamentDensities,1.25|1.25|1.25|1.25|1.25|1.25
;   useMinPrintHeight,0
;   minPrintHeight,0
;   useMaxPrintHeight,0
;   maxPrintHeight,0
;   useDiaphragm,0
;   diaphragmLayerInterval,20
;   robustSlicing,1
;   mergeAllIntoSolid,0
;   onlyRetractWhenCrossingOutline,1
;   retractBetweenLayers,1
;   useRetractionMinTravel,0
;   retractionMinTravel,3
;   retractWhileWiping,0
;   onlyWipeOutlines,1
;   avoidCrossingOutline,0
;   maxMovementDetourFactor,3
;   toolChangeRetractionDistance,12
;   toolChangeExtraRestartDistance,-0.5
;   toolChangeRetractionSpeed,600
;   externalThinWallType,0
;   internalThinWallType,2
;   thinWallAllowedOverlapPercentage,10
;   singleExtrusionMinLength,1
;   singleExtrusionMinPrintingWidthPercentage,50
;   singleExtrusionMaxPrintingWidthPercentage,200
;   singleExtrusionEndpointExtension,0.2
;   horizontalSizeCompensation,0
G90
M83
; **** Replicator 2X start.gcode ****
M73 P0 ; Enable build progress
G162 X Y F3000 ; Home XY maximum
G161 Z F1200 ; Home Z minimum
G92 Z-5 ; Set Z to -5
G1 Z0 ; Move Z to 0
G161 Z F100 ; Home Z slowly
M132 X Y Z A B ; Recall home offsets
M135 T0 ; Load right extruder offsets
G1 X-130 Y-75 Z30 F9000 ; Move to wait position off table
G130 X20 Y20 Z20 A20 B20 ; Lower stepper Vrefs while heating
M127 ; Set fan speed
M140 S0 T0 ; Heat buildplate
M104 S200 T0 ; Heat right extruder
M133 T0 ; Stabilize extruder temperature
G130 X127 Y127 Z40 A127 B127 ; Default stepper Vref
G92 A0 B0 ; Zero extruders
G1 X100 Y-70 F9000 ; Move to front right corner of bed
G1 Z0.3 F6000 ; Move down to purge
G1 X-90 Y-70 E24 F2000 ; Extrude a line of filament across the front edge of the bed
G1 X-100 Y-70 F180 ; Wait for ooze
G1 X-110 Y-70 F5000 ; Fast wipe
G1 Z0.5 F100 ; Lift
G92 A0 B0 ; Zero extruders
M73 P1 ;@body (notify GPX body has started)
; **** end of start.gcode ****
G1 E-1.0000 F1200
G1 Z0.570 F1200
; process grid
; layer 1, Z = 0.590
M135 T0
; tool H0.590 W0.400
; infill
G1 X48.800 Y-8.095 F9000
G1 E1.0000 F360
G1 X48.800 Y8.095 E1.7473 F3500
G1 X48.654 Y9.004 E0.0993
G1 X48.170 Y11.309 E0.2543
G1 X48.000 Y11.997 E0.0765
G1 X48.000 Y-11.997 E2.5896
G1 X47.885 Y-12.461 E0.0516
G1 X47.570 Y-13.615 E0.1291
G1 X47.225 Y-14.768 E0.1300
G1 X47.200 Y-14.844 E0.0085
G1 X47.200 Y14.844 E3.2041
G1 X46.849 Y15.920 E0.1222
G1 X46.443 Y17.069 E0.1315
G1 X46.400 Y17.181 E0.0129
G1 X46.400 Y-17.181 E3.7086
G1 X46.006 Y-18.213 E0.1193
G1 X45.600 Y-19.202 E0.1154
G1 X45.600 Y19.202 E4.1450
G1 X45.538 Y19.352 E0.0175
G1 X45.040 Y20.485 E0.1336
G1 X44.800 Y20.996 E0.0609
G1 X44.800 Y-20.996 E4.5322
G1 X44.512 Y-21.610 E0.0732
G1 X44.000 Y-22.631 E0.1232
G1 X44.000 Y22.631 E4.8850
G1 X43.952 Y22.726 E0.0115
G1 X43.363 Y23.831 E0.1352
G1 X43.200 Y24.119 E0.0357
G1 X43.200 Y-24.119 E5.2062
G1 X42.743 Y-24.926 E0.1001
G1 X42.400 Y-25.497 E0.0719
G1 X42.400 Y25.497 E5.5038
G1 X42.093 Y26.008 E0.0643
G1 X41.600 Y26.784 E0.0993
G1 X41.600 Y-26.784 E5.7816
G1 X41.414 Y-27.076 E0.0373
G1 X40.800 Y-27.990 E0.1189
G1 X40.800 Y27.990 E6.0419
G1 X40.707 Y28.129 E0.0181
G1 X40.000 Y29.124 E0.1317
G1 X40.000 Y-29.124 E6.2866
G1 X39.970 Y-29.166 E0.0055
G1 X39.205 Y-30.186 E0.1376
G1 X39.200 Y-30.193 E0.0009
G1 X39.200 Y30.193 E6.5174
G1 X38.414 Y31.187 E0.1368
G1 X38.400 Y31.204 E0.0024
G1 X38.400 Y-31.204 E6.7356
G1 X37.600 Y-32.164 E0.1349
G1 X37.600 Y32.164 E6.9428
G1 X37.595 Y32.169 E0.0008
G1 X36.800 Y33.075 E0.1301
G1 X36.800 Y-33.075 E7.1394
G1 X36.751 Y-33.130 E0.0080
G1 X36.000 Y-33.942 E0.1194
G1 X36.000 Y33.942 E7.3267
G1 X35.881 Y34.070 E0.0188
G1 X35.200 Y34.770 E0.1054
G1 X35.200 Y-34.770 E7.5053
G1 X34.988 Y-34.988 E0.0328
G1 X34.400 Y-35.560 E0.0885
G1 X34.400 Y35.560 E7.6760
G1 X34.070 Y35.881 E0.0497
G1 X33.600 Y36.317 E0.0692
G1 X33.600 Y-36.317 E7.8392
G1 X33.130 Y-36.751 E0.0691
G1 X32.800 Y-37.041 E0.0474
G1 X32.800 Y37.041 E7.9957
G1 X32.169 Y37.595 E0.0906
G1 X32.000 Y37.736 E0.0238
G1 X32.000 Y-37.736 E8.1457
G1 X31.200 Y-38.403 E0.1124
G1 X31.200 Y38.403 E8.2896
G1 X31.187 Y38.414 E0.0018
G1 X30.400 Y39.036 E0.1083
G1 X30.400 Y-39.036 E8.4263
G1 X30.186 Y-39.205 E0.0294
G1 X29.600 Y-39.645 E0.0791
G1 X29.600 Y39.645 E8.5576
G1 X29.166 Y39.970 E0.0586
G1 X28.800 Y40.230 E0.0484
G1 X28.800 Y-40.230 E8.6840
G1 X28.129 Y-40.707 E0.0888
G1 X28.000 Y-40.793 E0.0168
G1 X28.000 Y40.793 E8.8056
G1 X27.200 Y41.331 E0.1040
G1 X27.200 Y-41.331 E8.9217
G1 X27.076 Y-41.414 E0.0161
G1 X26.400 Y-41.844 E0.0864
G1 X26.400 Y41.844 E9.0324
G1 X26.008 Y42.093 E0.0501
G1 X25.600 Y42.338 E0.0514
G1 X25.600 Y-42.338 E9.1391
G1 X24.926 Y-42.743 E0.0848
G1 X24.800 Y-42.814 E0.0157
G1 X24.800 Y42.814 E9.2418
G1 X24.000 Y43.267 E0.0992
G1 X24.000 Y-43.267 E9.3396
G1 X23.831 Y-43.363 E0.0209
G1 X23.200 Y-43.699 E0.0772
G1 X23.200 Y43.699 E9.4329
G1 X22.726 Y43.952 E0.0580
G1 X22.400 Y44.116 E0.0393
G1 X22.400 Y-44.116 E9.5227
G1 X21.610 Y-44.512 E0.0954
G1 X21.600 Y-44.516 E0.0012
G1 X21.600 Y44.516 E9.6092
G1 X20.800 Y44.892 E0.0954
G1 X20.800 Y-44.892 E9.6904
G1 X20.485 Y-45.040 E0.0375
G1 X20.000 Y-45.254 E0.0572
G1 X20.000 Y45.254 E9.7684
G1 X19.352 Y45.538 E0.0764
G1 X19.200 Y45.601 E0.0178
G1 X19.200 Y-45.601 E9.8434
G1 X18.400 Y-45.929 E0.0933
G1 X18.400 Y45.929 E9.9142
G1 X18.213 Y46.006 E0.0218
G1 X17.600 Y46.240 E0.0708
G1 X17.600 Y-46.240 E9.9813
G1 X17.069 Y-46.443 E0.0614
G1 X16.800 Y-46.538 E0.0308
G1 X16.800 Y46.538 E10.0456
G1 X16.000 Y46.821 E0.0916
G1 X16.000 Y-46.821 E10.1066
G1 X15.920 Y-46.849 E0.0091
G1 X15.200 Y-47.084 E0.0818
G1 X15.200 Y47.084 E10.1634
G1 X14.768 Y47.225 E0.0490
G1 X14.400 Y47.335 E0.0415
G1 X14.400 Y-47.335 E10.2176
G1 X13.615 Y-47.570 E0.0885
G1 X13.600 Y-47.574 E0.0016
G1 X13.600 Y47.574 E10.2692
G1 X12.800 Y47.793 E0.0895
G1 X12.800 Y-47.793 E10.3164
G1 X12.461 Y-47.885 E0.0380
G1 X12.000 Y-47.999 E0.0512
G1 X12.000 Y47.999 E10.3610
G1 X11.309 Y48.170 E0.0768
G1 X11.200 Y48.193 E0.0120
G1 X11.200 Y-48.193 E10.4029
G1 X10.400 Y-48.361 E0.0882
G1 X10.400 Y48.361 E10.4391
G1 X9.600 Y48.529 E0.0882
G1 X9.600 Y-48.529 E10.4753
G1 X9.004 Y-48.654 E0.0658
G1 X8.800 Y-48.687 E0.0223
G1 X8.800 Y48.687 E10.5094
G1 X8.000 Y48.815 E0.0875
G1 X8.000 Y-48.815 E10.5372
G1 X7.200 Y-48.944 E0.0875
G1 X7.200 Y48.944 E10.5650
G1 X6.714 Y49.022 E0.0531
G1 X6.400 Y49.058 E0.0341
G1 X6.400 Y-49.058 E10.5895
G1 X5.600 Y-49.149 E0.0869
G1 X5.600 Y49.149 E10.6092
G1 X4.800 Y49.240 E0.0869
G1 X4.800 Y-49.240 E10.6288
G1 X4.446 Y-49.280 E0.0384
G1 X4.000 Y-49.310 E0.0482
G1 X4.000 Y49.310 E10.6439
G1 X3.200 Y49.364 E0.0865
G1 X3.200 Y-49.364 E10.6556
G1 X2.400 Y-49.418 E0.0865
G1 X2.400 Y49.418 E10.6672
G1 X2.206 Y49.431 E0.0210
G1 X1.600 Y49.444 E0.0654
G1 X1.600 Y-49.444 E10.6729
G1 X0.800 Y-49.462 E0.0864
G1 X0.800 Y49.462 E10.6768
G1 X0.000 Y49.480 E0.0864
G1 X0.000 Y-49.480 E10.6806
G1 X-0.800 Y-49.462 E0.0864
G1 X-0.800 Y49.462 E10.6768
G1 X-1.600 Y49.444 E0.0864
G1 X-1.600 Y-49.444 E10.6729
G1 X-2.206 Y-49.431 E0.0654
G1 X-2.400 Y-49.418 E0.0210
G1 X-2.400 Y49.418 E10.6672
G1 X-3.200 Y49.364 E0.0865
G1 X-3.200 Y-49.364 E10.6556
G1 X-4.000 Y-49.310 E0.0865
G1 X-4.000 Y49.310 E10.6439
G1 X-4.446 Y49.280 E0.0483
G1 X-4.800 Y49.240 E0.0384
G1 X-4.800 Y-49.240 E10.6288
G1 X-5.600 Y-49.149 E0.0869
G1 X-5.600 Y49.149 E10.6092
G1 X-6.400 Y49.058 E0.0869
G1 X-6.400 Y-49.058 E10.5895
G1 X-6.714 Y-49.022 E0.0341
G1 X-7.200 Y-48.944 E0.0531
G1 X-7.200 Y48.944 E10.5650
G1 X-8.000 Y48.815 E0.0875
G1 X-8.000 Y-48.815 E10.5372
G1 X-8.800 Y-48.687 E0.0875
G1 X-8.800 Y48.687 E10.5094
G1 X-9.004 Y48.654 E0.0223
G1 X-9.600 Y48.529 E0.0658
G1 X-9.600 Y-48.529 E10.4753
G1 X-10.400 Y-48.361 E0.0882
G1 X-10.400 Y48.361 E10.4391
G1 X-11.200 Y48.193 E0.0882
G1 X-11.200 Y-48.193 E10.4029
G1 X-11.309 Y-48.170 E0.0120
G1 X-12.000 Y-47.999 E0.0768
G1 X-12.000 Y47.999 E10.3610
G1 X-12.461 Y47.885 E0.0512
G1 X-12.800 Y47.793 E0.0380
G1 X-12.800 Y-47.793 E10.3164
G1 X-13.600 Y-47.574 E0.0895
G1 X-13.600 Y47.574 E10.2692
G1 X-13.615 Y47.570 E0.0016
G1 X-14.400 Y47.335 E0.0885
G1 X-14.400 Y-47.335 E10.2176
G1 X-14.768 Y-47.225 E0.0415
G1 X-15.200 Y-47.084 E0.0490
G1 X-15.200 Y47.084 E10.1634
G1 X-15.920 Y46.849 E0.0818
G1 X-16.000 Y46.821 E0.0091
G1 X-16.000 Y-46.821 E10.1066
G1 X-16.800 Y-46.538 E0.0916
G1 X-16.800 Y46.538 E10.0456
G1 X-17.069 Y46.443 E0.0308
G1 X-17.600 Y46.240 E0.0614
G1 X-17.600 Y-46.240 E9.9813
G1 X-18.213 Y-46.006 E0.0708
G1 X-18.400 Y-45.929 E0.0218
G1 X-18.400 Y45.929 E9.9142
G1 X-19.200 Y45.601 E0.0933
G1 X-19.200 Y-45.601 E9.8434
G1 X-19.352 Y-45.538 E0.0178
G1 X-20.000 Y-45.254 E0.0764
G1 X-20.000 Y45.254 E9.7684
G1 X-20.485 Y45.040 E0.0572
G1 X-20.800 Y44.892 E0.0375
G1 X-20.800 Y-44.892 E9.6904
G1 X-21.600 Y-44.516 E0.0954
G1 X-21.600 Y44.516 E9.6092
G1 X-21.610 Y44.512 E0.0012
G1 X-22.400 Y44.116 E0.0954
G1 X-22.400 Y-44.116 E9.5227
G1 X-22.726 Y-43.952 E0.0393
G1 X-23.200 Y-43.699 E0.0580
G1 X-23.200 Y43.699 E9.4329
G1 X-23.831 Y43.363 E0.0772
G1 X-24.000 Y43.267 E0.0209
G1 X-24.000 Y-43.267 E9.3396
G1 X-24.800 Y-42.814 E0.0992
G1 X-24.800 Y42.814 E9.2418
G1 X-24.926 Y42.743 E0.0157
G1 X-25.600 Y42.338 E0.0848
G1 X-25.600 Y-42.338 E9.1391
G1 X-26.008 Y-42.093 E0.0514
G1 X-26.400 Y-41.844 E0.0501
G1 X-26.400 Y41.844 E9.0324
G1 X-27.076 Y41.414 E0.0864
G1 X-27.200 Y41.331 E0.0161
G1 X-27.200 Y-41.331 E8.9217
G1 X-28.000 Y-40.793 E0.1040
G1 X-28.000 Y40.793 E8.8056
G1 X-28.129 Y40.707 E0.0168
G1 X-28.800 Y40.230 E0.0888
G1 X-28.800 Y-40.230 E8.6840
G1 X-29.166 Y-39.970 E0.0484
G1 X-29.600 Y-39.645 E0.0586
G1 X-29.600 Y39.645 E8.5577
G1 X-30.186 Y39.205 E0.0791
G1 X-30.400 Y39.036 E0.0294
G1 X-30.400 Y-39.036 E8.4263
G1 X-31.187 Y-38.414 E0.1083
G1 X-31.200 Y-38.403 E0.0018
G1 X-31.200 Y38.403 E8.2896
G1 X-32.000 Y37.736 E0.1124
G1 X-32.000 Y-37.736 E8.1457
G1 X-32.169 Y-37.595 E0.0238
G1 X-32.800 Y-37.041 E0.0906
G1 X-32.800 Y37.041 E7.9957
G1 X-33.130 Y36.751 E0.0475
G1 X-33.600 Y36.317 E0.0691
G1 X-33.600 Y-36.317 E7.8392
G1 X-34.070 Y-35.881 E0.0692
G1 X-34.400 Y-35.560 E0.0497
G1 X-34.400 Y35.560 E7.6760
G1 X-34.988 Y34.988 E0.0886
